Yaru++/devices/scalable/drive-harddisk-solidstate.svg

<svg height="256" viewBox="0 0 67.73 67.73" width="256" xmlns="http://www.w3.org/2000/svg" xmlns:xlink="http://www.w3.org/1999/xlink"><linearGradient id="a" gradientUnits="userSpaceOnUse" x1="34.32999265396" x2="34.32999265396" y1="251.18490009638" y2="285.08409789587"><stop offset="0" stop-color="#808080"/><stop offset="1" stop-color="#999"/></linearGradient><linearGradient id="b" gradientTransform="matrix(0 -.11988342 -.11987999 0 67.013155 292.5452)" gradientUnits="userSpaceOnUse" x1="529.65515" x2="-35.310345" y1="295.6377" y2="295.6377"><stop offset="0" stop-color="#999"/><stop offset=".61328125" stop-color="#b7b7b7"/><stop offset="1" stop-color="#dbdbdb"/></linearGradient><linearGradient id="c" gradientUnits="userSpaceOnUse" x1="88" x2="488" y1="88" y2="488"><stop offset="0" stop-opacity=".588235"/><stop offset=".88" stop-opacity="0"/><stop offset="1"/></linearGradient><filter id="d" color-interpolation-filters="sRGB" height="1.087725" width="1.105998" x="-.052999" y="-.043863"><feGaussianBlur stdDeviation="8.4801079"/></filter><filter id="e" color-interpolation-filters="sRGB" height="1.021931" width="1.0265" x="-.01325" y="-.010966"><feGaussianBlur stdDeviation="2.120027"/></filter><g transform="translate(0 -229.26666)"><path d="m189.84323 74c-70.59344 0-78.18921 7.250835-77.84323 77.98706v146.01294 146.01294c-.34598 70.73623 7.24979 77.98706 77.84323 77.98706h196.31354c70.59344 0 76.00668-7.27384 77.84323-77.98706v-146.01294-146.01294c0-70.737067-7.24979-77.98706-77.84323-77.98706z" filter="url(#e)" opacity=".1" transform="matrix(.13228516 0 0 .13228516 -4.409451 223.75692)"/><path d="m189.84323 74c-70.59344 0-78.18921 7.250835-77.84323 77.98706v146.01294 146.01294c-.34598 70.73623 7.24979 77.98706 77.84323 77.98706h196.31354c70.59344 0 77.84323-7.24999 77.84323-77.98706v-146.01294-146.01294c0-70.737067-7.24979-77.98706-77.84323-77.98706z" fill="url(#c)" filter="url(#d)" opacity=".3" transform="matrix(.13228516 0 0 .13228516 -4.409451 223.75692)"/><path d="m46.671927 233.28145c9.338467 0 10.343273.95918 10.297505 10.31653v19.31535 19.31534c.04577 9.35736-.959038 10.31653-10.297505 10.31653h-25.969365c-9.338463 0-10.297504-.95906-10.297504-10.31653v-19.31534-19.31535c0-9.35746.959041-10.31653 10.297504-10.31653z" fill="url(#b)"/><text style="font-weight:300;font-size:20.126904;font-family:Ubuntu;letter-spacing:0;word-spacing:0;opacity:.2;fill:#fff;stroke:#fff;stroke-width:.793711" transform="scale(1.0012075 .99879396)" x="16.712275" y="285.3121"><tspan fill="#fff" font-family="Ubuntu" font-weight="300" stroke="#fff" stroke-width=".793711" x="16.712275" y="285.3121">SSD</tspan></text><text style="font-weight:300;font-size:20.126904;font-family:Ubuntu;letter-spacing:0;word-spacing:0;stroke-width:.793711;fill:url(#a);stroke:url(#a)" transform="scale(1.0012075 .99879396)" x="16.712275" y="284.7822"><tspan fill="url(#a)" font-family="Ubuntu" font-weight="300" stroke="url(#a)" stroke-width=".793711" x="16.712275" y="284.7822">SSD</tspan></text><path d="m10.406485 281.69937v.52914c-.04577 9.35736.959107 10.31669 10.297574 10.31669h25.969228c9.338464 0 10.054627-.96238 10.297574-10.31669v-.52914c-.242947 9.35431-.95911 10.31669-10.297574 10.31669h-25.969228c-9.338467 0-10.343342-.95933-10.297574-10.31669z" opacity=".2"/></g></svg>

<?xml version="1.0" encoding="UTF-8" standalone="no"?>
<svg
   xmlns:dc="http://purl.org/dc/elements/1.1/"
   xmlns:cc="http://creativecommons.org/ns#"
   xmlns:rdf="http://www.w3.org/1999/02/22-rdf-syntax-ns#"
   xmlns:svg="http://www.w3.org/2000/svg"
   xmlns="http://www.w3.org/2000/svg"
   xmlns:xlink="http://www.w3.org/1999/xlink"
   xmlns:sodipodi="http://sodipodi.sourceforge.net/DTD/sodipodi-0.dtd"
   xmlns:inkscape="http://www.inkscape.org/namespaces/inkscape"
   width="256"
   height="256"
   version="1.1"
   viewBox="0 0 67.73 67.73"
   id="svg55"
   sodipodi:docname="drive-harddisk-solidstate.svg"
   inkscape:version="0.92.4 (5da689c313, 2019-01-14)">
  <metadata
     id="metadata59">
    <rdf:RDF>
      <cc:Work
         rdf:about="">
        <dc:format>image/svg+xml</dc:format>
        <dc:type
           rdf:resource="http://purl.org/dc/dcmitype/StillImage" />
      </cc:Work>
    </rdf:RDF>
  </metadata>
  <sodipodi:namedview
     pagecolor="#ffffff"
     bordercolor="#666666"
     borderopacity="1"
     objecttolerance="10"
     gridtolerance="10"
     guidetolerance="10"
     inkscape:pageopacity="0"
     inkscape:pageshadow="2"
     inkscape:window-width="1920"
     inkscape:window-height="1016"
     id="namedview57"
     showgrid="false"
     inkscape:zoom="3.4434573"
     inkscape:cx="130.15975"
     inkscape:cy="144.38745"
     inkscape:window-x="0"
     inkscape:window-y="27"
     inkscape:window-maximized="1"
     inkscape:current-layer="g53" />
  <defs
     id="defs25">
    <linearGradient
       id="linearGradient1008"
       x1="152.006"
       x2="152.006"
       y1="112.013"
       y2="239.995"
       gradientTransform="matrix(.26488626 0 0 .26488626 -6.4611988 222.04517)"
       gradientUnits="userSpaceOnUse"
       xlink:href="#linearGradient928" />
    <linearGradient
       id="linearGradient928">
      <stop
         style="stop-color:#808080"
         offset="0"
         id="stop3" />
      <stop
         style="stop-color:#999999"
         offset="1"
         id="stop5" />
    </linearGradient>
    <linearGradient
       id="linearGradient4226"
       x1="529.655"
       x2="-35.31"
       y1="295.638"
       y2="295.638"
       gradientTransform="matrix(0 -.11988932 -.11988589 0 66.487288 293.07747)"
       gradientUnits="userSpaceOnUse">
      <stop
         style="stop-color:#999999"
         offset="0"
         id="stop8" />
      <stop
         style="stop-color:#b7b7b7"
         offset=".613"
         id="stop10" />
      <stop
         style="stop-color:#dbdbdb"
         offset="1"
         id="stop12" />
    </linearGradient>
    <linearGradient
       id="linearGradient4358"
       x1="88"
       x2="488"
       y1="88"
       y2="488"
       gradientUnits="userSpaceOnUse">
      <stop
         style="stop-color:#000000;stop-opacity:.58823532"
         offset="0"
         id="stop15" />
      <stop
         style="stop-color:#000000;stop-opacity:0"
         offset=".88"
         id="stop17" />
      <stop
         style="stop-color:#000000"
         offset="1"
         id="stop19" />
    </linearGradient>
    <filter
       id="filter4346"
       width="1.026"
       height="1.022"
       x="-.01"
       y="-.01"
       style="color-interpolation-filters:sRGB">
      <feGaussianBlur
         stdDeviation="2.12"
         id="feGaussianBlur22" />
    </filter>
    <linearGradient
       inkscape:collect="always"
       xlink:href="#linearGradient928"
       id="linearGradient933"
       gradientUnits="userSpaceOnUse"
       x1="152.0062"
       y1="112.01257"
       x2="152.0062"
       y2="239.9953"
       gradientTransform="matrix(1.0011449,0,0,1.0011449,2.2140235,-1.4825001)" />
    <linearGradient
       inkscape:collect="always"
       xlink:href="#linearGradient928"
       id="linearGradient941"
       x1="152.0062"
       y1="112.01257"
       x2="152.0062"
       y2="239.9953"
       gradientUnits="userSpaceOnUse"
       gradientTransform="matrix(1.0011449,0,0,1.0011449,2.2140229,-1.4825031)" />
    <linearGradient
       inkscape:collect="always"
       xlink:href="#linearGradient928"
       id="linearGradient1008-6"
       gradientUnits="userSpaceOnUse"
       x1="152.0062"
       y1="112.01257"
       x2="152.0062"
       y2="239.9953"
       gradientTransform="matrix(0.26487322,0,0,0.26487322,-5.932379,221.51577)" />
    <linearGradient
       inkscape:collect="always"
       xlink:href="#linearGradient928"
       id="linearGradient954"
       x1="152.0062"
       y1="112.01257"
       x2="152.0062"
       y2="239.9953"
       gradientUnits="userSpaceOnUse"
       gradientTransform="matrix(0.26487322,0,0,0.26487322,-5.932379,221.51577)" />
    <linearGradient
       gradientUnits="userSpaceOnUse"
       y2="295.6377"
       x2="-35.310345"
       y1="295.6377"
       x1="529.65515"
       id="linearGradient4226-7"
       xlink:href="#linearGradient4338-3"
       inkscape:collect="always"
       gradientTransform="matrix(0,-0.11988342,-0.11987999,0,67.013155,292.5452)" />
    <linearGradient
       inkscape:collect="always"
       id="linearGradient4338-3">
      <stop
         id="stop4342-7"
         offset="0"
         style="stop-color:#999999;stop-opacity:1" />
      <stop
         style="stop-color:#b7b7b7;stop-opacity:1"
         offset="0.61328125"
         id="stop932" />
      <stop
         id="stop4340-0"
         offset="1"
         style="stop-color:#dbdbdb;stop-opacity:1" />
    </linearGradient>
    <linearGradient
       inkscape:collect="always"
       xlink:href="#linearGradient4360"
       id="linearGradient4358-5"
       x1="88"
       y1="88"
       x2="488"
       y2="488"
       gradientUnits="userSpaceOnUse" />
    <linearGradient
       id="linearGradient4360"
       inkscape:collect="always">
      <stop
         id="stop4362"
         offset="0"
         style="stop-color:#000000;stop-opacity:0.58823532" />
      <stop
         style="stop-color:#000000;stop-opacity:0"
         offset="0.88"
         id="stop4364" />
      <stop
         id="stop4366"
         offset="1"
         style="stop-color:#000000;stop-opacity:1" />
    </linearGradient>
    <filter
       inkscape:collect="always"
       style="color-interpolation-filters:sRGB"
       id="filter4380"
       x="-0.052999184"
       width="1.1059984"
       y="-0.043862626"
       height="1.0877253">
      <feGaussianBlur
         inkscape:collect="always"
         stdDeviation="8.4801079"
         id="feGaussianBlur4382" />
    </filter>
    <filter
       inkscape:collect="always"
       style="color-interpolation-filters:sRGB"
       id="filter4346-3"
       x="-0.013249796"
       width="1.0264996"
       y="-0.010965657"
       height="1.0219313">
      <feGaussianBlur
         inkscape:collect="always"
         stdDeviation="2.120027"
         id="feGaussianBlur4348" />
    </filter>
  </defs>
  <g
     transform="translate(0,-229.26666)"
     id="g53">
    <path
       style="color:#000000;display:inline;overflow:visible;visibility:visible;opacity:0.1;fill:#000000;fill-opacity:1;fill-rule:nonzero;stroke:none;stroke-width:2;marker:none;filter:url(#filter4346-3);enable-background:accumulate"
       d="M 189.84323,74 C 119.24979,74 111.65402,81.250835 112,151.98706 V 298 444.01294 C 111.65402,514.74917 119.24979,522 189.84323,522 H 386.15677 C 456.75021,522 462.16345,514.72616 464,444.01294 V 298 151.98706 C 464,81.249993 456.75021,74 386.15677,74 Z"
       id="rect4158-9"
       inkscape:connector-curvature="0"
       sodipodi:nodetypes="scccssscsss"
       transform="matrix(0.13228516,0,0,0.13228516,-4.4094514,223.75692)" />
    <path
       sodipodi:nodetypes="scccssscsss"
       inkscape:connector-curvature="0"
       id="path4350"
       d="M 189.84323,74 C 119.24979,74 111.65402,81.250835 112,151.98706 V 298 444.01294 C 111.65402,514.74917 119.24979,522 189.84323,522 H 386.15677 C 456.75021,522 464,514.75001 464,444.01294 V 298 151.98706 C 464,81.249993 456.75021,74 386.15677,74 Z"
       style="color:#000000;display:inline;overflow:visible;visibility:visible;opacity:0.3;fill:url(#linearGradient4358-5);fill-opacity:1;fill-rule:nonzero;stroke:none;stroke-width:2;marker:none;filter:url(#filter4380);enable-background:accumulate"
       transform="matrix(0.13228516,0,0,0.13228516,-4.4094514,223.75692)" />
    <path
       style="color:#000000;display:inline;overflow:visible;visibility:visible;fill:url(#linearGradient4226-7);fill-opacity:1;fill-rule:nonzero;stroke:none;stroke-width:0.26457033;marker:none;enable-background:accumulate"
       d="m 46.671927,233.28145 c 9.338467,0 10.343273,0.95918 10.297505,10.31653 v 19.31535 19.31534 c 0.04577,9.35736 -0.959038,10.31653 -10.297505,10.31653 H 20.702562 c -9.338463,0 -10.297504,-0.95906 -10.297504,-10.31653 v -19.31534 -19.31535 c 0,-9.35746 0.959041,-10.31653 10.297504,-10.31653 z"
       id="rect4158"
       inkscape:connector-curvature="0"
       sodipodi:nodetypes="scccssscsss" />
    <text
       xml:space="preserve"
       style="font-style:normal;font-variant:normal;font-weight:300;font-stretch:normal;font-size:20.12690353px;line-height:1.25;font-family:Ubuntu;-inkscape-font-specification:'Ubuntu Light';letter-spacing:0px;word-spacing:0px;display:inline;opacity:0.2;fill:#ffffff;fill-opacity:1;stroke:#ffffff;stroke-width:0.79371095;stroke-miterlimit:4;stroke-dasharray:none;stroke-opacity:1;enable-background:new"
       x="16.712275"
       y="285.3121"
       id="text927-5"
       transform="scale(1.0012075,0.99879396)"><tspan
         sodipodi:role="line"
         id="tspan925-62"
         x="16.712275"
         y="285.3121"
         style="font-style:normal;font-variant:normal;font-weight:300;font-stretch:normal;font-family:Ubuntu;-inkscape-font-specification:'Ubuntu Light';fill:#ffffff;fill-opacity:1;stroke:#ffffff;stroke-width:0.79371095;stroke-miterlimit:4;stroke-dasharray:none;stroke-opacity:1">SSD</tspan></text>
    <text
       xml:space="preserve"
       style="font-style:normal;font-variant:normal;font-weight:300;font-stretch:normal;font-size:20.12690353px;line-height:1.25;font-family:Ubuntu;-inkscape-font-specification:'Ubuntu Light';letter-spacing:0px;word-spacing:0px;display:inline;fill:url(#linearGradient1008-6);fill-opacity:1;stroke:url(#linearGradient954);stroke-width:0.79371095;stroke-miterlimit:4;stroke-dasharray:none;stroke-opacity:1;enable-background:new"
       x="16.712275"
       y="284.7822"
       id="text927"
       transform="scale(1.0012075,0.99879396)"><tspan
         sodipodi:role="line"
         id="tspan925"
         x="16.712275"
         y="284.7822"
         style="font-style:normal;font-variant:normal;font-weight:300;font-stretch:normal;font-family:Ubuntu;-inkscape-font-specification:'Ubuntu Light';fill:url(#linearGradient1008-6);fill-opacity:1;stroke:url(#linearGradient954);stroke-width:0.79371095;stroke-miterlimit:4;stroke-dasharray:none;stroke-opacity:1">SSD</tspan></text>
    <path
       style="color:#000000;display:inline;overflow:visible;visibility:visible;opacity:0.2;fill:#000000;fill-opacity:1;fill-rule:nonzero;stroke:none;stroke-width:0.26457033;marker:none;enable-background:accumulate"
       d="m 10.406485,281.69937 v 0.52914 c -0.04577,9.35736 0.959107,10.31669 10.297574,10.31669 h 25.969228 c 9.338464,0 10.054627,-0.96238 10.297574,-10.31669 v -0.52914 c -0.242947,9.35431 -0.95911,10.31669 -10.297574,10.31669 H 20.704059 c -9.338467,0 -10.343342,-0.95933 -10.297574,-10.31669 z"
       id="path945"
       inkscape:connector-curvature="0" />
  </g>
</svg>
